X: 38406
T: Star Of Munster, The
R: reel
M: 4/4
K: Gdorian
|:BAGB AFFF|GBAG FDCE|DGG^F GA=Bc|dgge ^fdcA|
B2 GB A2 FD|GcAG FDCE|DGG^F GABc|d=BcA _BGGA:|
|:dgg^f gddd|gda^f gdde|f2 fe fccc|ccgc fccA|
dgg^f gddd|gdad gdde|f2 fa g2 ga|=bgag ^fdcA:|

